; generated by Slic3r 1.2.9 on 2017-09-10 at 23:35:58

; external perimeters extrusion width = 0.50mm
; perimeters extrusion width = 0.50mm
; infill extrusion width = 0.50mm
; solid infill extrusion width = 0.50mm
; top infill extrusion width = 0.50mm
; support material extrusion width = 0.30mm

M107
M190 S100 ; set bed temperature
M104 S240 ; set temperature
G28 ; home all axes
G1 Z5 F5000 ; lift nozzle

M109 S240 ; wait for temperature to be reached
G21 ; set units to millimeters
G90 ; use absolute coordinates
M82 ; use absolute distances for extrusion
G92 E0
G1 Z0.400 F7200.000
G1 E-2.50000 F2400.00000
G92 E0
G1 Z0.700 F7200.000
G1 X44.479 Y60.724 F7200.000
G1 Z0.400 F7200.000
G1 E2.50000 F2400.00000
G1 X45.632 Y59.880 E2.62219 F1920.000
G1 X48.706 Y59.016 E2.89523
G1 X50.010 Y58.919 E3.00709
G1 X50.602 Y58.897 E3.05771
G1 X149.845 Y58.897 E11.54352
G1 X150.990 Y58.979 E11.64159 F1920.000
G1 X152.161 Y59.148 E11.74281
G1 X155.061 Y60.159 E12.00543
G1 X156.033 Y60.726 E12.10165
G1 X158.364 Y62.781 E12.36735
G1 X159.123 Y63.773 E12.47414
G1 X160.324 Y65.996 E12.69016
G1 X160.687 Y67.455 E12.81869
G1 X160.978 Y69.381 E12.98526
G1 X161.068 Y70.579 E13.08803
G1 X161.068 Y128.228 E18.01727
G1 X160.217 Y131.825 E18.33335
G1 X157.830 Y136.587 E18.78880
G1 X156.357 Y138.639 E19.00482
G1 X154.318 Y140.132 E19.22084
G1 X151.173 Y141.001 E19.49983
G1 X149.354 Y141.103 E19.65564
G1 X50.111 Y141.103 E28.14145
G1 X48.859 Y141.004 E28.24881
G1 X47.695 Y140.821 E28.34959
G1 X44.825 Y139.780 E28.61054
G1 X43.859 Y139.202 E28.70684
G1 X41.521 Y137.081 E28.97673
G1 X40.773 Y136.068 E29.08445
G1 X39.611 Y133.825 E29.30047
G1 X39.279 Y132.395 E29.42595
G1 X39.008 Y130.429 E29.59564
G1 X38.932 Y129.333 E29.68958
G1 X38.932 Y71.684 E34.61883
G1 X39.783 Y68.087 E34.93490
G1 X42.120 Y63.425 E35.38083
G1 X43.593 Y61.373 E35.59684
G1 X44.382 Y60.795 E35.68042
G1 X44.774 Y61.141 F7200.000
G1 X46.010 Y60.265 E35.80990 F1920.000
G1 X48.744 Y59.528 E36.05203
G1 X50.048 Y59.432 E36.16388
G1 X50.602 Y59.412 E36.21126
G1 X149.845 Y59.412 E44.69707
G1 X150.916 Y59.488 E44.78886 F1920.000
G1 X152.088 Y59.657 E44.89008
G1 X154.802 Y60.603 E45.13587
G1 X155.774 Y61.170 E45.23210
G1 X157.956 Y63.094 E45.48078
G1 X158.715 Y64.086 E45.58758
G1 X159.865 Y66.242 E45.79652
G1 X160.178 Y67.531 E45.91000
G1 X160.469 Y69.458 E46.07657
G1 X160.553 Y70.579 E46.17275
G1 X160.553 Y128.228 E51.10200
G1 X159.757 Y131.595 E51.39783
G1 X157.370 Y136.357 E51.85328
G1 X155.935 Y138.334 E52.06223
G1 X153.940 Y139.747 E52.27117
G1 X151.140 Y140.488 E52.51887
G1 X149.354 Y140.588 E52.67183
G1 X50.111 Y140.588 E61.15764
G1 X48.939 Y140.497 E61.25813
G1 X47.775 Y140.313 E61.35890
G1 X45.089 Y139.339 E61.60314
G1 X44.123 Y138.761 E61.69944
G1 X41.935 Y136.776 E61.95205
G1 X41.187 Y135.762 E62.05976
G1 X40.074 Y133.587 E62.26871
G1 X39.788 Y132.325 E62.37934
G1 X39.517 Y130.359 E62.54902
G1 X39.447 Y129.333 E62.63695
G1 X39.447 Y71.684 E67.56619
G1 X40.243 Y68.318 E67.86203
G1 X42.580 Y63.655 E68.30795
G1 X44.015 Y61.678 E68.51689
G1 X44.676 Y61.210 E68.58609
G1 X46.009 Y62.985 F7200.000
G1 X47.006 Y62.317 E68.68870 F1920.000
G1 X48.204 Y61.904 E68.79710
G1 X51.709 Y61.645 E69.09759
G1 X51.852 Y61.715 E69.11118
G1 X51.966 Y61.741 E69.12119 F1920.000
G1 X149.293 Y61.741 E77.44315
G1 X149.727 Y61.671 E77.48076
G1 X153.073 Y62.153 E77.76982
G1 X154.077 Y62.863 E77.87492
G1 X155.238 Y63.375 E77.98343
G1 X157.335 Y66.116 E78.27850
G1 X157.837 Y67.395 E78.39600
G1 X157.970 Y68.799 E78.51664
G1 X157.997 Y68.892 E78.52491
G1 X158.257 Y69.405 E78.57407
G1 X158.267 Y74.226 E78.98626
G1 X158.227 Y74.376 E78.99958
G1 X158.304 Y76.658 E79.19479
G1 X158.252 Y76.762 E79.20469
G1 X158.249 Y76.998 E79.22489
G1 X158.271 Y77.045 E79.22932
G1 X158.242 Y79.335 E79.42515
G1 X158.257 Y79.401 E79.43095
G1 X158.263 Y81.803 E79.63636
G1 X158.252 Y89.358 E80.28231
G1 X158.268 Y91.769 E80.48851
G1 X158.227 Y91.923 E80.50211
G1 X158.305 Y94.201 E80.69707
G1 X158.256 Y94.300 E80.70654
G1 X158.253 Y94.538 E80.72684
G1 X158.269 Y94.572 E80.73010
G1 X158.244 Y96.886 E80.92798
G1 X158.263 Y99.348 E81.13849
G1 X158.251 Y106.905 E81.78459
G1 X158.269 Y109.312 E81.99048
G1 X158.226 Y109.469 E82.00437
G1 X158.306 Y111.745 E82.19908
G1 X158.259 Y111.839 E82.20811
G1 X158.257 Y112.078 E82.22851
G1 X158.251 Y124.452 E83.28651
G1 X158.270 Y126.856 E83.49210
G1 X158.226 Y127.016 E83.50628
G1 X158.307 Y129.288 E83.70074
G1 X154.381 Y137.122 E84.44994
G1 X150.541 Y138.398 E84.79593
G1 X150.223 Y138.238 E84.82629
G1 X150.019 Y138.224 E84.84378
G1 X149.242 Y138.482 E84.91380
G1 X148.852 Y138.286 E84.95112
G1 X148.735 Y138.259 E84.96138
G1 X50.643 Y138.259 E93.34878
G1 X50.167 Y138.332 E93.38995
G1 X46.833 Y137.806 E93.67853
G1 X45.800 Y137.065 E93.78723
G1 X44.666 Y136.552 E93.89369
G1 X42.609 Y133.766 E94.18976
G1 X42.131 Y132.501 E94.30541
G1 X42.009 Y131.073 E94.42799
G1 X41.981 Y130.977 E94.43645
G1 X41.743 Y130.507 E94.48153
G1 X41.737 Y128.174 E94.68099
G1 X41.761 Y128.069 E94.69020
G1 X41.714 Y125.725 E94.89073
G1 X41.755 Y125.642 E94.89860
G1 X41.782 Y125.513 E94.90990
G1 X41.678 Y123.289 E95.10024
G1 X41.743 Y123.097 E95.11761
G1 X41.737 Y110.631 E96.18355
G1 X41.762 Y110.523 E96.19301
G1 X41.713 Y108.181 E96.39326
G1 X41.755 Y108.096 E96.40139
G1 X41.783 Y107.967 E96.41270
G1 X41.677 Y105.746 E96.60282
G1 X41.743 Y105.552 E96.62035
G1 X41.737 Y93.087 E97.68616
G1 X41.762 Y92.976 E97.69588
G1 X41.712 Y90.638 E97.89586
G1 X41.756 Y90.550 E97.90423
G1 X41.783 Y90.421 E97.91556
G1 X41.676 Y88.202 E98.10545
G1 X41.743 Y88.007 E98.12314
G1 X41.737 Y75.543 E99.18882
G1 X41.763 Y75.429 E99.19880
G1 X41.711 Y73.094 E99.39850
G1 X41.756 Y73.004 E99.40713
G1 X41.784 Y72.874 E99.41848
G1 X41.676 Y70.659 E99.60814
G1 X44.982 Y64.062 E100.23912
G1 X45.821 Y63.111 E100.34753
G1 X45.909 Y63.052 E100.35661
G1 X46.295 Y63.412 F7200.000
G1 X47.236 Y62.782 E100.45350 F1920.000
G1 X48.309 Y62.412 E100.55049
G1 X51.609 Y62.168 E100.83342
G1 X51.733 Y62.229 E100.84528 F1920.000
G1 X51.847 Y62.255 E100.85529
G1 X149.337 Y62.255 E109.19113
G1 X149.734 Y62.191 E109.22554
G1 X152.877 Y62.644 E109.49709
G1 X153.823 Y63.313 E109.59610
G1 X154.910 Y63.793 E109.69776
G1 X156.883 Y66.371 E109.97528
G1 X157.332 Y67.515 E110.08041
G1 X157.467 Y68.945 E110.20321
G1 X157.494 Y69.038 E110.21148
G1 X157.743 Y69.529 E110.25853
G1 X157.748 Y71.607 E110.43628
G1 X157.704 Y71.696 E110.44478
G1 X157.705 Y71.943 E110.46586
G1 X157.740 Y72.011 E110.47239
G1 X157.752 Y74.106 E110.65151
G1 X157.709 Y74.263 E110.66546
G1 X157.786 Y76.545 E110.86067
G1 X157.681 Y76.754 E110.88071
G1 X157.678 Y76.990 E110.90091
G1 X157.756 Y77.156 E110.91656
G1 X157.730 Y79.164 E111.08824
G1 X157.699 Y79.224 E111.09405
G1 X157.700 Y79.469 E111.11496
G1 X157.743 Y79.555 E111.12316
G1 X157.748 Y81.633 E111.30091
G1 X157.699 Y81.731 E111.31024
G1 X157.700 Y81.975 E111.33115
G1 X157.743 Y82.061 E111.33935
G1 X157.748 Y84.140 E111.51710
G1 X157.699 Y84.237 E111.52643
G1 X157.700 Y84.482 E111.54734
G1 X157.743 Y84.567 E111.55554
G1 X157.748 Y86.646 E111.73329
G1 X157.699 Y86.744 E111.74262
G1 X157.700 Y86.988 E111.76353
G1 X157.743 Y87.074 E111.77173
G1 X157.748 Y89.153 E111.94948
G1 X157.704 Y89.240 E111.95781
G1 X157.706 Y89.487 E111.97892
G1 X157.739 Y89.551 E111.98511
G1 X157.753 Y91.649 E112.16452
G1 X157.708 Y91.810 E112.17876
G1 X157.787 Y94.088 E112.37371
G1 X157.684 Y94.294 E112.39342
G1 X157.681 Y94.532 E112.41373
G1 X157.754 Y94.686 E112.42828
G1 X157.732 Y96.704 E112.60085
G1 X157.699 Y96.770 E112.60717
G1 X157.700 Y97.014 E112.62808
G1 X157.743 Y97.100 E112.63628
G1 X157.748 Y99.179 E112.81403
G1 X157.699 Y99.276 E112.82336
G1 X157.700 Y99.521 E112.84427
G1 X157.743 Y99.606 E112.85247
G1 X157.748 Y101.685 E113.03022
G1 X157.699 Y101.783 E113.03955
G1 X157.700 Y102.027 E113.06046
G1 X157.743 Y102.113 E113.06866
G1 X157.748 Y104.191 E113.24641
G1 X157.699 Y104.289 E113.25574
G1 X157.700 Y104.534 E113.27665
G1 X157.743 Y104.619 E113.28485
G1 X157.748 Y106.698 E113.46260
G1 X157.705 Y106.783 E113.47076
G1 X157.707 Y107.030 E113.49190
G1 X157.739 Y107.091 E113.49775
G1 X157.754 Y109.193 E113.67744
G1 X157.708 Y109.356 E113.69196
G1 X157.788 Y111.632 E113.88667
G1 X157.686 Y111.834 E113.90605
G1 X157.684 Y112.073 E113.92645
G1 X157.752 Y112.215 E113.93992
G1 X157.735 Y114.243 E114.11337
G1 X157.699 Y114.315 E114.12020
G1 X157.700 Y114.559 E114.14111
G1 X157.743 Y114.645 E114.14931
G1 X157.748 Y116.724 E114.32706
G1 X157.699 Y116.821 E114.33639
G1 X157.700 Y117.066 E114.35730
G1 X157.743 Y117.151 E114.36550
G1 X157.748 Y119.230 E114.54325
G1 X157.699 Y119.328 E114.55258
G1 X157.700 Y119.572 E114.57349
G1 X157.743 Y119.658 E114.58169
G1 X157.748 Y121.737 E114.75944
G1 X157.699 Y121.834 E114.76877
G1 X157.700 Y122.079 E114.78968
G1 X157.743 Y122.164 E114.79788
G1 X157.748 Y124.243 E114.97563
G1 X157.706 Y124.327 E114.98361
G1 X157.708 Y124.574 E115.00479
G1 X157.738 Y124.631 E115.01029
G1 X157.755 Y126.736 E115.19027
G1 X157.707 Y126.903 E115.20508
G1 X157.788 Y129.176 E115.39954
G1 X154.017 Y136.701 E116.11930
G1 X150.581 Y137.842 E116.42887
G1 X150.263 Y137.683 E116.45923
G1 X150.059 Y137.669 E116.47672
G1 X149.282 Y137.927 E116.54674
G1 X148.974 Y137.772 E116.57625
G1 X148.857 Y137.745 E116.58651
G1 X50.602 Y137.745 E124.98781
G1 X50.166 Y137.811 E125.02550
G1 X47.035 Y137.317 E125.29656
G1 X46.059 Y136.618 E125.39919
G1 X45.000 Y136.139 E125.49863
G1 X43.065 Y133.518 E125.77715
G1 X42.637 Y132.386 E125.88062
G1 X42.512 Y130.929 E126.00566
G1 X42.485 Y130.834 E126.01412
G1 X42.257 Y130.384 E126.05728
G1 X42.252 Y128.301 E126.23538
G1 X42.278 Y128.186 E126.24543
G1 X42.230 Y125.841 E126.44596
G1 X42.275 Y125.753 E126.45445
G1 X42.302 Y125.623 E126.46575
G1 X42.198 Y123.400 E126.65609
G1 X42.301 Y123.194 E126.67573
G1 X42.300 Y122.950 E126.69664
G1 X42.257 Y122.864 E126.70484
G1 X42.252 Y120.785 E126.88259
G1 X42.301 Y120.688 E126.89192
G1 X42.300 Y120.443 E126.91283
G1 X42.257 Y120.358 E126.92103
G1 X42.252 Y118.279 E127.09878
G1 X42.301 Y118.181 E127.10811
G1 X42.300 Y117.937 E127.12902
G1 X42.257 Y117.851 E127.13722
G1 X42.252 Y115.773 E127.31497
G1 X42.301 Y115.675 E127.32430
G1 X42.300 Y115.430 E127.34521
G1 X42.257 Y115.345 E127.35341
G1 X42.252 Y113.266 E127.53116
G1 X42.301 Y113.169 E127.54049
G1 X42.300 Y112.924 E127.56140
G1 X42.257 Y112.838 E127.56960
G1 X42.252 Y110.757 E127.74756
G1 X42.279 Y110.639 E127.75790
G1 X42.230 Y108.298 E127.95815
G1 X42.275 Y108.206 E127.96689
G1 X42.303 Y108.077 E127.97821
G1 X42.197 Y105.856 E128.16833
G1 X42.301 Y105.649 E128.18811
G1 X42.300 Y105.405 E128.20902
G1 X42.257 Y105.319 E128.21721
G1 X42.252 Y103.240 E128.39497
G1 X42.301 Y103.143 E128.40430
G1 X42.300 Y102.898 E128.42521
G1 X42.257 Y102.813 E128.43341
G1 X42.252 Y100.734 E128.61116
G1 X42.301 Y100.636 E128.62049
G1 X42.300 Y100.392 E128.64140
G1 X42.257 Y100.306 E128.64960
G1 X42.252 Y98.227 E128.82735
G1 X42.301 Y98.130 E128.83668
G1 X42.300 Y97.885 E128.85759
G1 X42.257 Y97.800 E128.86579
G1 X42.252 Y95.721 E129.04354
G1 X42.301 Y95.623 E129.05287
G1 X42.300 Y95.379 E129.07378
G1 X42.257 Y95.293 E129.08198
G1 X42.252 Y93.214 E129.25979
G1 X42.279 Y93.092 E129.27042
G1 X42.229 Y90.754 E129.47040
G1 X42.276 Y90.660 E129.47939
G1 X42.303 Y90.530 E129.49073
G1 X42.196 Y88.312 E129.68062
G1 X42.301 Y88.104 E129.70054
G1 X42.300 Y87.859 E129.72145
G1 X42.257 Y87.774 E129.72965
G1 X42.252 Y85.695 E129.90740
G1 X42.301 Y85.597 E129.91673
G1 X42.300 Y85.353 E129.93764
G1 X42.257 Y85.267 E129.94584
G1 X42.252 Y83.189 E130.12359
G1 X42.301 Y83.091 E130.13292
G1 X42.300 Y82.846 E130.15383
G1 X42.257 Y82.761 E130.16203
G1 X42.252 Y80.682 E130.33978
G1 X42.301 Y80.585 E130.34911
G1 X42.300 Y80.340 E130.37003
G1 X42.257 Y80.254 E130.37822
G1 X42.252 Y78.176 E130.55597
G1 X42.301 Y78.078 E130.56531
G1 X42.300 Y77.834 E130.58622
G1 X42.257 Y77.748 E130.59441
G1 X42.252 Y75.669 E130.77217
G1 X42.280 Y75.546 E130.78300
G1 X42.228 Y73.211 E130.98270
G1 X42.276 Y73.114 E130.99195
G1 X42.304 Y72.984 E131.00330
G1 X42.196 Y70.769 E131.19296
G1 X45.412 Y64.352 E131.80670
G1 X46.195 Y63.479 E131.90696
G1 X46.581 Y63.839 F7200.000
G1 X47.467 Y63.246 E131.99815 F1920.000
G1 X48.413 Y62.920 E132.08373
G1 X51.508 Y62.691 E132.34908
G1 X51.615 Y62.743 E132.35922
G1 X51.729 Y62.770 E132.36923 F1920.000
G1 X149.380 Y62.770 E140.71894
G1 X149.741 Y62.712 E140.75017
G1 X152.682 Y63.135 E141.00419
G1 X153.569 Y63.763 E141.09712
G1 X154.583 Y64.211 E141.19193
G1 X156.431 Y66.626 E141.45190
G1 X156.827 Y67.636 E141.54466
G1 X156.958 Y69.117 E141.67182
G1 X157.229 Y69.652 E141.72312
G1 X157.234 Y71.486 E141.87996
G1 X157.127 Y71.700 E141.90037
G1 X157.128 Y71.946 E141.92144
G1 X157.227 Y72.137 E141.93979
G1 X157.237 Y73.985 E142.09784
G1 X157.157 Y74.147 E142.11327
G1 X157.165 Y74.408 E142.13565
G1 X157.201 Y74.470 E142.14174
G1 X157.268 Y76.431 E142.30956
G1 X157.110 Y76.747 E142.33973
G1 X157.107 Y76.983 E142.35993
G1 X157.240 Y77.267 E142.38681
G1 X157.217 Y79.039 E142.53829
G1 X157.123 Y79.226 E142.55616
G1 X157.124 Y79.470 E142.57708
G1 X157.229 Y79.678 E142.59698
G1 X157.234 Y81.512 E142.75382
G1 X157.123 Y81.732 E142.77486
G1 X157.124 Y81.977 E142.79577
G1 X157.229 Y82.184 E142.81568
G1 X157.234 Y84.019 E142.97252
G1 X157.123 Y84.239 E142.99356
G1 X157.124 Y84.483 E143.01447
G1 X157.229 Y84.691 E143.03438
G1 X157.234 Y86.525 E143.19122
G1 X157.123 Y86.745 E143.21226
G1 X157.124 Y86.990 E143.23317
G1 X157.229 Y87.197 E143.25308
G1 X157.234 Y89.032 E143.40992
G1 X157.127 Y89.244 E143.43019
G1 X157.129 Y89.490 E143.45130
G1 X157.226 Y89.678 E143.46933
G1 X157.238 Y91.529 E143.62763
G1 X157.157 Y91.690 E143.64306
G1 X157.166 Y91.952 E143.66547
G1 X157.201 Y92.011 E143.67127
G1 X157.268 Y93.975 E143.83933
G1 X157.112 Y94.288 E143.86928
G1 X157.109 Y94.526 E143.88958
G1 X157.239 Y94.799 E143.91543
G1 X157.219 Y96.579 E144.06769
G1 X157.123 Y96.771 E144.08603
G1 X157.124 Y97.016 E144.10694
G1 X157.229 Y97.223 E144.12685
G1 X157.234 Y99.057 E144.28368
G1 X157.123 Y99.277 E144.30473
G1 X157.124 Y99.522 E144.32564
G1 X157.229 Y99.730 E144.34555
G1 X157.234 Y101.564 E144.50238
G1 X157.123 Y101.784 E144.52342
G1 X157.124 Y102.029 E144.54434
G1 X157.229 Y102.236 E144.56424
G1 X157.234 Y104.070 E144.72108
G1 X157.123 Y104.290 E144.74212
G1 X157.124 Y104.535 E144.76304
G1 X157.229 Y104.743 E144.78294
G1 X157.234 Y106.577 E144.93978
G1 X157.128 Y106.787 E144.95992
G1 X157.130 Y107.035 E144.98106
G1 X157.225 Y107.219 E144.99877
G1 X157.239 Y109.073 E145.15732
G1 X157.158 Y109.234 E145.17276
G1 X157.167 Y109.496 E145.19520
G1 X157.200 Y109.552 E145.20071
G1 X157.269 Y111.519 E145.36900
G1 X157.113 Y111.830 E145.39872
G1 X157.111 Y112.068 E145.41912
G1 X157.237 Y112.330 E145.44396
G1 X157.222 Y114.120 E145.59700
G1 X157.123 Y114.316 E145.61579
G1 X157.124 Y114.561 E145.63670
G1 X157.229 Y114.768 E145.65661
G1 X157.234 Y116.603 E145.81345
G1 X157.123 Y116.823 E145.83449
G1 X157.124 Y117.067 E145.85540
G1 X157.229 Y117.275 E145.87531
G1 X157.234 Y119.109 E146.03215
G1 X157.123 Y119.329 E146.05319
G1 X157.124 Y119.574 E146.07410
G1 X157.229 Y119.781 E146.09401
G1 X157.234 Y121.616 E146.25085
G1 X157.123 Y121.836 E146.27189
G1 X157.124 Y122.080 E146.29280
G1 X157.229 Y122.288 E146.31271
G1 X157.234 Y124.122 E146.46955
G1 X157.129 Y124.331 E146.48955
G1 X157.131 Y124.579 E146.51072
G1 X157.225 Y124.759 E146.52812
G1 X157.240 Y126.616 E146.68692
G1 X157.159 Y126.778 E146.70236
G1 X157.168 Y127.040 E146.72482
G1 X157.199 Y127.093 E146.73006
G1 X157.270 Y129.063 E146.89857
G1 X153.652 Y136.280 E147.58888
G1 X150.621 Y137.287 E147.86203
G1 X150.303 Y137.128 E147.89239
G1 X150.099 Y137.114 E147.90988
G1 X149.322 Y137.372 E147.97990
G1 X149.017 Y137.219 E148.00913
G1 X148.825 Y137.201 E148.02561
G1 X148.720 Y137.230 E148.03497
G1 X50.561 Y137.230 E156.42802
G1 X50.166 Y137.291 E156.46221
G1 X47.237 Y136.828 E156.71576
G1 X46.319 Y136.171 E156.81232
G1 X45.334 Y135.725 E156.90475
G1 X43.521 Y133.270 E157.16571
G1 X43.144 Y132.271 E157.25701
G1 X43.038 Y131.038 E157.36280
G1 X43.056 Y130.944 E157.37098
