; generated by Slic3r 1.2.9 on 2017-09-10 at 23:35:21

; external perimeters extrusion width = 0.50mm
; perimeters extrusion width = 0.50mm
; infill extrusion width = 0.50mm
; solid infill extrusion width = 0.50mm
; top infill extrusion width = 0.50mm
; support material extrusion width = 0.30mm

M107
M190 S100 ; set bed temperature
M104 S240 ; set temperature
G28 ; home all axes
G1 Z5 F5000 ; lift nozzle

M109 S240 ; wait for temperature to be reached
G21 ; set units to millimeters
G90 ; use absolute coordinates
M82 ; use absolute distances for extrusion
G92 E0
G1 Z0.400 F7200.000
G1 E-2.50000 F2400.00000
G92 E0
G1 Z0.700 F7200.000
G1 X88.402 Y88.386 F7200.000
G1 Z0.400 F7200.000
G1 E2.50000 F2400.00000
G1 X89.081 Y87.746 E2.57975 F1920.000
G1 X89.828 Y87.119 E2.66319
G1 X90.577 Y86.561 E2.74302
G1 X91.393 Y86.025 E2.82649
G1 X92.201 Y85.558 E2.90629
G1 X93.073 Y85.120 E2.98973
G1 X93.930 Y84.751 E3.06956
G1 X94.841 Y84.419 E3.15237
G1 X95.742 Y84.149 E3.23282
G1 X96.691 Y83.924 E3.31626
G1 X97.611 Y83.762 E3.39609
G1 X98.582 Y83.648 E3.47969
G1 X99.512 Y83.594 E3.55936
G1 X100.488 Y83.594 E3.64280
G1 X101.420 Y83.649 E3.72263
G1 X102.390 Y83.762 E3.80610 F1920.000
G1 X103.309 Y83.924 E3.88590
G1 X104.258 Y84.149 E3.96934
G1 X105.153 Y84.417 E4.04917
G1 X106.070 Y84.751 E4.13261
G1 X106.927 Y85.120 E4.21244
G1 X107.793 Y85.555 E4.29529
G1 X108.607 Y86.025 E4.37570
G1 X109.423 Y86.561 E4.45915
G1 X110.172 Y87.119 E4.53897
G1 X110.919 Y87.746 E4.62241
G1 X111.598 Y88.387 E4.70224
G1 X112.268 Y89.097 E4.78568
G1 X112.868 Y89.812 E4.86551
G1 X113.451 Y90.595 E4.94895
G1 X113.964 Y91.375 E5.02878
G1 X114.452 Y92.220 E5.11226
G1 X114.871 Y93.054 E5.19205
G1 X115.257 Y93.950 E5.27549
G1 X115.577 Y94.827 E5.35532
G1 X115.856 Y95.762 E5.43876
G1 X116.072 Y96.671 E5.51859
G1 X116.241 Y97.632 E5.60203
G1 X116.350 Y98.559 E5.68185
G1 X116.406 Y99.533 E5.76529
G1 X116.406 Y100.467 E5.84512
G1 X116.350 Y101.441 E5.92856
G1 X116.241 Y102.368 E6.00839
G1 X116.073 Y103.323 E6.09124
G1 X115.856 Y104.238 E6.17166
G1 X115.576 Y105.173 E6.25515
G1 X115.257 Y106.050 E6.33493
G1 X114.871 Y106.946 E6.41837
G1 X114.452 Y107.780 E6.49820
G1 X113.964 Y108.625 E6.58164
G1 X113.451 Y109.405 E6.66147
G1 X112.868 Y110.188 E6.74491
G1 X112.268 Y110.903 E6.82473
G1 X111.603 Y111.608 E6.90754
G1 X110.919 Y112.254 E6.98800
G1 X110.172 Y112.881 E7.07144
G1 X109.423 Y113.439 E7.15127
G1 X108.607 Y113.975 E7.23474
G1 X107.799 Y114.442 E7.31454
G1 X106.927 Y114.880 E7.39798
G1 X106.070 Y115.249 E7.47781
G1 X105.153 Y115.583 E7.56125
G1 X104.258 Y115.851 E7.64107
G1 X103.307 Y116.076 E7.72466
G1 X102.389 Y116.238 E7.80434
G1 X101.427 Y116.351 E7.88716
G1 X100.488 Y116.406 E7.96761
G1 X99.512 Y116.406 E8.05105
G1 X98.580 Y116.351 E8.13088
G1 X97.610 Y116.238 E8.21435
G1 X96.691 Y116.076 E8.29415
G1 X95.742 Y115.851 E8.37759
G1 X94.847 Y115.583 E8.45742
G1 X93.930 Y115.249 E8.54086
G1 X93.073 Y114.880 E8.62069
G1 X92.208 Y114.445 E8.70350
G1 X91.393 Y113.975 E8.78395
G1 X90.577 Y113.438 E8.86742
G1 X89.828 Y112.881 E8.94722
G1 X89.086 Y112.259 E9.03004
G1 X88.402 Y111.613 E9.11049
G1 X87.732 Y110.903 E9.19393
G1 X87.132 Y110.188 E9.27376
G1 X86.549 Y109.405 E9.35723
G1 X86.036 Y108.625 E9.43703
G1 X85.548 Y107.780 E9.52047
G1 X85.129 Y106.946 E9.60030
G1 X84.743 Y106.049 E9.68379
G1 X84.423 Y105.173 E9.76356
G1 X84.143 Y104.237 E9.84704
G1 X83.928 Y103.329 E9.92683
G1 X83.760 Y102.376 E10.00965
G1 X83.650 Y101.441 E10.09010
G1 X83.594 Y100.466 E10.17364
G1 X83.594 Y99.533 E10.25337
G1 X83.650 Y98.559 E10.33681
G1 X83.759 Y97.632 E10.41664
G1 X83.928 Y96.670 E10.50012
G1 X84.144 Y95.762 E10.57991
G1 X84.423 Y94.827 E10.66335
G1 X84.743 Y93.950 E10.74318
G1 X85.129 Y93.054 E10.82662
G1 X85.548 Y92.220 E10.90644
G1 X86.036 Y91.375 E10.98988
G1 X86.549 Y90.595 E11.06971
G1 X87.132 Y89.812 E11.15318
G1 X87.732 Y89.097 E11.23298
G1 X88.320 Y88.473 E11.30624
G1 X88.776 Y88.739 F7200.000
G1 X89.411 Y88.140 E11.38088 F1920.000
G1 X90.159 Y87.513 E11.46432
G1 X90.860 Y86.991 E11.53904
G1 X91.675 Y86.455 E11.62251
G1 X92.432 Y86.018 E11.69720
G1 X93.304 Y85.580 E11.78064
G1 X94.106 Y85.234 E11.85535
G1 X95.016 Y84.902 E11.93816
G1 X95.860 Y84.649 E12.01351
G1 X96.810 Y84.424 E12.09695
G1 X97.670 Y84.273 E12.17166
G1 X98.641 Y84.159 E12.25525
G1 X99.512 Y84.108 E12.32982
G1 X100.488 Y84.108 E12.41326
G1 X101.360 Y84.159 E12.48797
G1 X102.330 Y84.273 E12.57144 F1920.000
G1 X103.190 Y84.424 E12.64613
G1 X104.140 Y84.649 E12.72957
G1 X104.977 Y84.900 E12.80429
G1 X105.894 Y85.234 E12.88773
G1 X106.696 Y85.580 E12.96244
G1 X107.562 Y86.014 E13.04525
G1 X108.325 Y86.455 E13.12060
G1 X109.140 Y86.991 E13.20404
G1 X109.841 Y87.513 E13.27875
G1 X110.589 Y88.140 E13.36220
G1 X111.224 Y88.740 E13.43691
G1 X111.894 Y89.449 E13.52035
G1 X112.456 Y90.119 E13.59507
G1 X113.038 Y90.902 E13.67851
G1 X113.518 Y91.632 E13.75322
G1 X114.007 Y92.477 E13.83670
G1 X114.399 Y93.258 E13.91138
G1 X114.785 Y94.154 E13.99482
G1 X115.084 Y94.975 E14.06954
G1 X115.364 Y95.910 E14.15298
G1 X115.565 Y96.760 E14.22769
G1 X115.735 Y97.721 E14.31113
G1 X115.836 Y98.589 E14.38585
G1 X115.893 Y99.563 E14.46929
G1 X115.893 Y100.437 E14.54401
G1 X115.836 Y101.411 E14.62745
G1 X115.735 Y102.279 E14.70216
G1 X115.567 Y103.233 E14.78497
G1 X115.364 Y104.090 E14.86031
G1 X115.084 Y105.026 E14.94380
G1 X114.785 Y105.846 E15.01847
G1 X114.399 Y106.742 E15.10191
G1 X114.006 Y107.523 E15.17663
G1 X113.518 Y108.368 E15.26007
G1 X113.038 Y109.098 E15.33479
G1 X112.456 Y109.881 E15.41823
G1 X111.894 Y110.551 E15.49294
G1 X111.229 Y111.255 E15.57575
G1 X110.589 Y111.860 E15.65110
G1 X109.841 Y112.487 E15.73454
G1 X109.140 Y113.009 E15.80925
G1 X108.325 Y113.545 E15.89272
G1 X107.568 Y113.982 E15.96741
G1 X106.696 Y114.420 E16.05085
G1 X105.894 Y114.766 E16.12556
G1 X104.977 Y115.100 E16.20900
G1 X104.140 Y115.351 E16.28372
G1 X103.188 Y115.576 E16.36730
G1 X102.330 Y115.727 E16.44188
G1 X101.367 Y115.840 E16.52475
G1 X100.488 Y115.892 E16.60003
G1 X99.512 Y115.892 E16.68347
G1 X98.640 Y115.841 E16.75819
G1 X97.670 Y115.727 E16.84166
G1 X96.810 Y115.576 E16.91635
G1 X95.860 Y115.351 E16.99979
G1 X95.023 Y115.100 E17.07450
G1 X94.106 Y114.766 E17.15794
G1 X93.304 Y114.420 E17.23266
G1 X92.438 Y113.985 E17.31547
G1 X91.675 Y113.545 E17.39081
G1 X90.860 Y113.009 E17.47427
G1 X90.159 Y112.487 E17.54897
G1 X89.417 Y111.865 E17.63178
G1 X88.776 Y111.260 E17.70712
G1 X88.106 Y110.551 E17.79056
G1 X87.544 Y109.881 E17.86528
G1 X86.961 Y109.098 E17.94875
G1 X86.481 Y108.368 E18.02344
G1 X85.994 Y107.523 E18.10688
G1 X85.601 Y106.742 E18.18159
G1 X85.215 Y105.846 E18.26508
G1 X84.916 Y105.025 E18.33975
G1 X84.636 Y104.090 E18.42323
G1 X84.435 Y103.240 E18.49790
G1 X84.266 Y102.286 E18.58072
G1 X84.164 Y101.411 E18.65606
G1 X84.107 Y100.436 E18.73959
G1 X84.107 Y99.563 E18.81422
G1 X84.164 Y98.589 E18.89766
G1 X84.265 Y97.721 E18.97237
G1 X84.433 Y96.767 E19.05522
G1 X84.636 Y95.910 E19.13053
G1 X84.916 Y94.975 E19.21397
G1 X85.215 Y94.154 E19.28868
G1 X85.601 Y93.258 E19.37212
G1 X85.994 Y92.477 E19.44684
G1 X86.481 Y91.632 E19.53028
G1 X86.962 Y90.902 E19.60500
G1 X87.545 Y90.119 E19.68846
G1 X88.106 Y89.449 E19.76315
G1 X88.694 Y88.826 E19.83640
G1 E17.33640 F2400.00000
G92 E0
G1 Z0.700 F7200.000
G1 X90.689 Y90.544 F7200.000
G1 Z0.400 F7200.000
G1 E2.50000 F2400.00000
G1 X90.993 Y90.246 E2.53641 F1920.000
G1 X91.958 Y89.436 E2.64414
G1 X92.186 Y89.266 E2.66844
G1 X93.239 Y88.574 E2.77620
G1 X93.485 Y88.431 E2.80050
G1 X94.611 Y87.866 E2.90824
G1 X94.872 Y87.753 E2.93255
G1 X96.056 Y87.322 E3.04029
G1 X96.329 Y87.241 E3.06460
G1 X97.555 Y86.950 E3.17233
G1 X97.835 Y86.901 E3.19664
G1 X99.087 Y86.755 E3.30446
G1 X99.370 Y86.738 E3.32872
G1 X100.630 Y86.738 E3.43644
G1 X100.914 Y86.755 E3.46074
G1 X102.166 Y86.901 E3.56850 F1920.000
G1 X102.445 Y86.950 E3.59280
G1 X103.671 Y87.241 E3.70051
G1 X103.944 Y87.322 E3.72483
G1 X105.128 Y87.753 E3.83258
G1 X105.389 Y87.866 E3.85689
G1 X106.515 Y88.432 E3.96465
G1 X106.761 Y88.574 E3.98895
G1 X107.814 Y89.266 E4.09669
G1 X108.042 Y89.436 E4.12099
G1 X109.007 Y90.246 E4.22871
G1 X109.214 Y90.441 E4.25303
G1 X110.079 Y91.357 E4.36078
G1 X110.261 Y91.575 E4.38509
G1 X111.014 Y92.586 E4.49282
G1 X111.170 Y92.823 E4.51713
G1 X111.800 Y93.915 E4.62491
G1 X111.928 Y94.169 E4.64920
G1 X112.427 Y95.325 E4.75690
G1 X112.524 Y95.593 E4.78123
G1 X112.885 Y96.800 E4.88896
G1 X112.951 Y97.077 E4.91328
G1 X113.170 Y98.317 E5.02101
G1 X113.203 Y98.600 E5.04533
G1 X113.276 Y99.857 E5.15305
G1 X113.276 Y100.142 E5.17738
G1 X113.203 Y101.400 E5.28514
G1 X113.170 Y101.682 E5.30944
G1 X112.951 Y102.924 E5.41720
G1 X112.885 Y103.200 E5.44150
G1 X112.567 Y104.264 E5.53646
G1 X112.427 Y104.674 E5.57353
G1 X111.421 Y107.007 E5.79072
G1 X111.221 Y107.138 E5.81118
G1 X111.147 Y107.212 E5.82016
G1 X110.261 Y108.425 E5.94852
G1 X110.079 Y108.643 E5.97282
G1 X109.214 Y109.559 E6.08057
G1 X109.007 Y109.754 E6.10487
G1 X108.042 Y110.564 E6.21261
G1 X107.814 Y110.734 E6.23692
G1 X106.761 Y111.426 E6.34468
G1 X106.515 Y111.569 E6.36897
G1 X105.389 Y112.134 E6.47668
G1 X105.128 Y112.247 E6.50101
G1 X103.944 Y112.678 E6.60874
G1 X103.672 Y112.759 E6.63306
G1 X102.445 Y113.050 E6.74088
G1 X102.165 Y113.099 E6.76514
G1 X101.062 Y113.228 E6.86009
G1 X100.630 Y113.262 E6.89716
G1 X99.370 Y113.262 E7.00490
G1 X99.086 Y113.245 E7.02920
G1 X97.834 Y113.099 E7.13696
G1 X97.555 Y113.050 E7.16126
G1 X96.329 Y112.759 E7.26897
G1 X96.056 Y112.678 E7.29330
G1 X94.872 Y112.247 E7.40104
G1 X94.611 Y112.134 E7.42535
G1 X93.485 Y111.568 E7.53313
G1 X93.239 Y111.426 E7.55742
G1 X92.186 Y110.734 E7.66516
G1 X91.958 Y110.564 E7.68946
G1 X91.107 Y109.850 E7.78442
G1 X90.786 Y109.559 E7.82149
G1 X89.921 Y108.643 E7.92923
G1 X89.739 Y108.425 E7.95354
G1 X88.986 Y107.414 E8.06130
G1 X88.830 Y107.177 E8.08559
G1 X88.200 Y106.085 E8.19333
G1 X88.072 Y105.831 E8.21764
G1 X87.573 Y104.674 E8.32541
G1 X87.476 Y104.407 E8.34970
G1 X87.115 Y103.200 E8.45745
G1 X87.049 Y102.923 E8.48174
G1 X86.856 Y101.830 E8.57671
G1 X86.797 Y101.400 E8.61378
G1 X86.724 Y100.142 E8.72156
G1 X86.724 Y99.858 E8.74584
G1 X86.797 Y98.600 E8.85357
G1 X86.830 Y98.318 E8.87787
G1 X87.023 Y97.224 E8.97284
G1 X87.115 Y96.800 E9.00992
G1 X87.476 Y95.593 E9.11762
G1 X87.573 Y95.326 E9.14195
G1 X88.072 Y94.169 E9.24970
G1 X88.200 Y93.915 E9.27401
G1 X88.830 Y92.823 E9.38175
G1 X88.986 Y92.586 E9.40606
G1 X89.739 Y91.575 E9.51381
G1 X89.921 Y91.357 E9.53811
G1 X90.607 Y90.631 E9.62349
G1 X91.063 Y90.897 F7200.000
G1 X91.335 Y90.630 E9.65606 F1920.000
G1 X92.481 Y89.687 E9.78295
G1 X93.729 Y88.884 E9.90986
G1 X95.062 Y88.231 E10.03676
G1 X96.462 Y87.738 E10.16366
G1 X97.909 Y87.410 E10.29056
G1 X99.132 Y87.267 E10.39581
G1 X100.615 Y87.252 E10.52265
G1 X101.957 Y87.394 E10.63806 F1920.000
G1 X102.341 Y87.454 E10.67129
G1 X103.782 Y87.811 E10.79819
G1 X104.938 Y88.231 E10.90338
G1 X106.151 Y88.824 E11.01879
G1 X106.491 Y89.011 E11.05202
G1 X107.519 Y89.687 E11.15720
G1 X108.665 Y90.630 E11.28408
G1 X108.850 Y90.805 E11.30584
G1 X109.858 Y91.894 E11.43275
G1 X110.732 Y93.093 E11.55965
G1 X111.347 Y94.159 E11.66486
G1 X111.949 Y95.515 E11.79171
G1 X112.036 Y95.755 E11.81348
G1 X112.447 Y97.181 E11.94039
G1 X112.661 Y98.392 E12.04556
G1 X112.690 Y98.645 E12.06732
G1 X112.762 Y100.127 E12.19422
G1 X112.661 Y101.608 E12.32113
G1 X112.447 Y102.820 E12.42634
G1 X112.074 Y104.117 E12.54173
G1 X111.949 Y104.484 E12.57496
G1 X111.010 Y106.662 E12.77771
G1 X110.842 Y106.772 E12.79485
G1 X110.760 Y106.859 E12.80513
G1 X110.593 Y107.119 E12.83154
G1 X109.694 Y108.301 E12.95844
G1 X108.665 Y109.370 E13.08534
G1 X107.519 Y110.313 E13.21224
G1 X106.491 Y110.989 E13.31744
G1 X105.172 Y111.668 E13.44430
G1 X104.938 Y111.769 E13.46607
G1 X103.538 Y112.262 E13.59298
G1 X102.341 Y112.546 E13.69823
G1 X101.002 Y112.717 E13.81358
G1 X100.615 Y112.748 E13.84682
G1 X99.131 Y112.733 E13.97371
G1 X97.909 Y112.590 E14.07891
G1 X96.462 Y112.262 E14.20578
G1 X96.218 Y112.189 E14.22754
G1 X94.829 Y111.668 E14.35445
G1 X93.729 Y111.116 E14.45967
G1 X92.481 Y110.312 E14.58655
G1 X91.438 Y109.456 E14.70194
G1 X91.150 Y109.195 E14.73517
G1 X90.142 Y108.106 E14.86208
G1 X89.407 Y107.119 E14.96728
G1 X88.653 Y105.841 E15.09416
G1 X88.538 Y105.614 E15.11591
G1 X88.051 Y104.484 E15.22112
G1 X87.611 Y103.067 E15.34802
G1 X87.362 Y101.740 E15.46341
G1 X87.310 Y101.355 E15.49664
G1 X87.238 Y100.127 E15.60186
G1 X87.310 Y98.645 E15.72873
G1 X87.529 Y97.313 E15.84413
G1 X87.611 Y96.933 E15.87737
G1 X88.051 Y95.516 E16.00426
G1 X88.538 Y94.386 E16.10945
G1 X88.653 Y94.159 E16.13120
G1 X89.407 Y92.881 E16.25810
G1 X90.142 Y91.894 E16.36330
G1 X90.980 Y90.984 E16.46910
G1 X91.437 Y91.250 F7200.000
G1 X91.677 Y91.014 E16.49784 F1920.000
G1 X92.776 Y90.109 E16.61962
G1 X93.973 Y89.337 E16.74142
G1 X95.252 Y88.709 E16.86320
G1 X96.595 Y88.235 E16.98499
G1 X97.984 Y87.919 E17.10678
G1 X99.400 Y87.766 E17.22859
G1 X100.824 Y87.779 E17.35036
G1 X102.016 Y87.919 E17.45300 F1920.000
G1 X103.405 Y88.235 E17.57475
G1 X103.620 Y88.299 E17.59395
G1 X104.954 Y88.798 E17.71575
G1 X106.027 Y89.337 E17.81839
G1 X107.224 Y90.109 E17.94017
G1 X108.323 Y91.014 E18.06194
G1 X108.486 Y91.168 E18.08114
G1 X109.310 Y92.041 E18.18377
G1 X110.171 Y93.176 E18.30555
G1 X110.895 Y94.403 E18.42737
G1 X111.471 Y95.705 E18.54911
G1 X111.547 Y95.916 E18.56832
G1 X111.943 Y97.285 E18.69011
G1 X112.152 Y98.466 E18.79272
G1 X112.178 Y98.689 E18.81193
G1 X112.248 Y100.112 E18.93371
G1 X112.152 Y101.533 E19.05551
G1 X111.943 Y102.716 E19.15815
G1 X111.582 Y103.969 E19.26971
G1 X111.471 Y104.294 E19.29911
G1 X110.598 Y106.317 E19.48742
G1 X110.458 Y106.409 E19.50181
G1 X110.375 Y106.497 E19.51209
G1 X110.171 Y106.824 E19.54508
G1 X109.310 Y107.959 E19.66687
G1 X108.323 Y108.986 E19.78866
G1 X107.224 Y109.891 E19.91044
G1 X106.221 Y110.551 E20.01308
G1 X104.954 Y111.202 E20.13483
G1 X104.748 Y111.290 E20.15404
G1 X103.405 Y111.765 E20.27583
G1 X102.237 Y112.042 E20.37852
G1 X100.943 Y112.207 E20.49004
G1 X100.600 Y112.234 E20.51944
G1 X99.176 Y112.221 E20.64122
G1 X97.984 Y112.081 E20.74386
G1 X96.595 Y111.765 E20.86562
G1 X96.380 Y111.701 E20.88482
G1 X95.046 Y111.202 E21.00661
G1 X93.973 Y110.663 E21.10927
G1 X92.776 Y109.891 E21.23104
G1 X91.768 Y109.063 E21.34260
G1 X91.513 Y108.832 E21.37200
G1 X90.546 Y107.787 E21.49379
G1 X89.829 Y106.824 E21.59643
G1 X89.105 Y105.597 E21.71820
G1 X89.005 Y105.397 E21.73739
G1 X88.529 Y104.294 E21.84004
G1 X88.108 Y102.934 E21.96182
G1 X87.869 Y101.651 E22.07339
G1 X87.822 Y101.310 E22.10278
G1 X87.752 Y100.112 E22.20544
G1 X87.822 Y98.690 E22.32719
G1 X88.036 Y97.402 E22.43878
G1 X88.108 Y97.066 E22.46816
G1 X88.529 Y95.706 E22.58994
G1 X89.005 Y94.604 E22.69257
G1 X89.105 Y94.403 E22.71176
G1 X89.829 Y93.176 E22.83355
G1 X90.546 Y92.213 E22.93619
G1 X91.354 Y91.337 E23.03815
G1 X91.811 Y91.602 F7200.000
G1 X92.019 Y91.398 E23.06306 F1920.000
G1 X93.071 Y90.530 E23.17973
G1 X94.217 Y89.790 E23.29641
G1 X95.442 Y89.188 E23.41308
G1 X96.728 Y88.731 E23.52976
G1 X98.058 Y88.428 E23.64643
G1 X99.221 Y88.292 E23.74655
G1 X100.585 Y88.281 E23.86318
G1 X102.133 Y88.462 E23.99645 F1920.000
G1 X103.458 Y88.787 E24.11312
G1 X104.558 Y89.187 E24.21319
G1 X105.951 Y89.887 E24.34647
G1 X106.929 Y90.530 E24.44654
G1 X107.981 Y91.398 E24.56320
G1 X109.051 Y92.532 E24.69649
G1 X109.857 Y93.633 E24.81316
G1 X110.442 Y94.647 E24.91324
G1 X111.059 Y96.078 E25.04650
G1 X111.440 Y97.389 E25.16317
G1 X111.643 Y98.541 E25.26323
G1 X111.734 Y100.097 E25.39651
G1 X111.643 Y101.459 E25.51320
G1 X111.440 Y102.611 E25.61328
G1 X110.993 Y104.105 E25.74654
G1 X110.187 Y105.972 E25.92041
G1 X110.073 Y106.047 E25.93207
G1 X109.991 Y106.134 E25.94234
G1 X109.750 Y106.529 E25.98191
G1 X109.051 Y107.468 E26.08198
G1 X107.981 Y108.601 E26.21525
G1 X106.929 Y109.470 E26.33193
G1 X105.951 Y110.113 E26.43201
G1 X104.558 Y110.812 E26.56526
G1 X103.272 Y111.269 E26.68194
G1 X102.133 Y111.539 E26.78206
G1 X100.585 Y111.719 E26.91529
G1 X99.221 Y111.708 E27.03196
G1 X98.058 Y111.572 E27.13204
G1 X96.542 Y111.213 E27.26530
